svgs/regular/oil-can-drip.svg

<svg xmlns="http://www.w3.org/2000/svg" viewBox="0 0 640 512"><!--! Font Awesome Pro 6.3.0 by @fontawesome - https://fontawesome.com License - https://fontawesome.com/license (Commercial License) Copyright 2023 Fonticons, Inc. --><path d="M352 88c0 13.3-10.7 24-24 24H280v48h88.9c9.9 0 19.7 2.3 28.6 6.8L448 192l139.8-30 2.1-.4 11.3-2.4 13.9-3c18.1-3.9 30.7 17.6 18.4 31.5l-9.4 10.6-7.6 8.6-1.4 1.6L451.1 394.3c-12.1 13.8-29.6 21.7-48 21.7H144c-26.5 0-48-21.5-48-48V346.7l-67.5-30C11.2 309 0 291.8 0 272.8V208c0-26.5 21.5-48 48-48H96h48 3.2H232V112H184c-13.3 0-24-10.7-24-24s10.7-24 24-24H328c13.3 0 24 10.7 24 24zM458.7 242.1c-11.4 2.4-23.2 .9-33.6-4.3l-50.5-25.2c-1.8-.9-3.7-1.4-5.7-1.4H147.2V364.8H403.1c3.7 0 7.2-1.6 9.6-4.3L530.8 226.6l-72.1 15.4zM96 211.2V208H48v64.8l48 21.3V211.2zM592 448c-26.5 0-48-21.5-48-48c0-21 20.6-62.6 34.9-88.8c5.8-10.6 20.5-10.6 26.3 0C619.4 337.4 640 379 640 400c0 32-21.5 48-48 48z"/></svg>

<svg xmlns="http://www.w3.org/2000/svg" viewBox="0 0 640 512"><!--! Font Awesome Pro 6.2.0 by @fontawesome - https://fontawesome.com License - https://fontawesome.com/license (Commercial License) Copyright 2022 Fonticons, Inc. --><path d="M352 88C352 101.3 341.3 112 328 112H280V160H368.9C378.8 160 388.6 162.3 397.5 166.8L448 192L615 156.2C633.1 152.3 645.7 173.8 633.5 187.7L451.1 394.3C438.1 408.1 421.5 416 403.1 416H144C117.5 416 96 394.5 96 368V346.7L28.51 316.7C11.17 308.1 0 291.8 0 272.8V208C0 181.5 21.49 160 48 160H232V112H184C170.7 112 160 101.3 160 88C160 74.75 170.7 64 184 64H328C341.3 64 352 74.75 352 88V88zM441.2 245.8L374.6 212.6C372.8 211.7 370.9 211.2 368.9 211.2H147.2V364.8H403.1C406.8 364.8 410.3 363.2 412.7 360.5L530.8 226.6L441.2 245.8zM96 208H48V272.8L96 294.1V208zM544 400C544 379 564.6 337.4 578.9 311.2C584.6 300.6 599.4 300.6 605.1 311.2C619.4 337.4 640 379 640 400C640 432 618.5 448 592 448C565.5 448 544 426.5 544 400z"/></svg>
